images/down.svg

<?xml version="1.0" encoding="UTF-8" standalone="no"?>
<svg
   xmlns:dc="http://purl.org/dc/elements/1.1/"
   xmlns:cc="http://creativecommons.org/ns#"
   xmlns:rdf="http://www.w3.org/1999/02/22-rdf-syntax-ns#"
   xmlns:svg="http://www.w3.org/2000/svg"
   xmlns="http://www.w3.org/2000/svg"
   version="1.1"
   width="14"
   viewBox="0 0 14 12"
   height="12"
   id="svg4874">
  <defs
     id="defs9" />
  <metadata
     id="metadata4879">
    <rdf:RDF>
      <cc:Work
         rdf:about="">
        <dc:format>image/svg+xml</dc:format>
        <dc:type
           rdf:resource="http://purl.org/dc/dcmitype/StillImage" />
        <dc:title />
      </cc:Work>
    </rdf:RDF>
  </metadata>
  <rect
     id="rect4782-01"
     style="color:#000000;fill:none"
     transform="matrix(0,1,1,0,0,0)"
     height="96"
     width="96"
     y="-2.2583008e-06"
     x="-84.005005" />
  <path
     id="path4224"
     style="color:#000000;text-indent:0;text-decoration:none;text-decoration-line:none;text-decoration-style:solid;text-decoration-color:#000000;text-transform:none;white-space:normal;isolation:auto;mix-blend-mode:normal;solid-color:#000000;fill:#333333;color-rendering:auto;image-rendering:auto;shape-rendering:auto"
     d="m 2,3.7996302 h 1.7489954 l 0.089747,0.1245675 C 4.1057082,4.2952616 4.3787825,4.6594629 4.6627814,5.0138649 5.0227012,5.4631628 5.3904475,5.8856754 5.7665294,6.2800788 6.1312058,6.6623814 6.6408967,7.1257339 6.9999796,7.4362874 7.3592431,7.1256264 7.8695628,6.6622507 8.234104,6.2800788 8.610197,5.8856828 8.977935,5.4631168 9.33785,5.0138649 9.621662,4.6597629 9.894057,4.2955616 10.161265,3.9241976 l 0.08974,-0.1245675 H 12 L 11.230956,4.9669927 C 10.780879,5.6151626 10.324173,6.2424384 9.856006,6.8221581 9.333134,7.469735 8.825259,8.051063 8.331718,8.566087 7.8755959,9.042002 7.4531784,9.429051 7.1362637,9.688371 L 7.0000137,9.79963 6.8637636,9.688371 C 6.5402559,9.422005 6.1251402,9.042063 5.6689336,8.566087 5.1753935,8.051063 4.6674765,7.4697271 4.1446455,6.8221581 3.6766054,6.2425922 3.2192725,5.6153314 2.7690649,4.9669929 Z" />
</svg>

<?xml version="1.0" encoding="UTF-8"?>
<!-- Created with Inkscape (http://www.inkscape.org/) -->
<svg width="14" height="12" version="1.1" viewBox="0 0 14 12" xmlns="http://www.w3.org/2000/svg" xmlns:cc="http://creativecommons.org/ns#" xmlns:dc="http://purl.org/dc/elements/1.1/" xmlns:rdf="http://www.w3.org/1999/02/22-rdf-syntax-ns#">
 <metadata>
  <rdf:RDF>
   <cc:Work rdf:about="">
    <dc:format>image/svg+xml</dc:format>
    <dc:type rdf:resource="http://purl.org/dc/dcmitype/StillImage"/>
   </cc:Work>
  </rdf:RDF>
 </metadata>
 <rect transform="matrix(0,1,1,0,0,0)" x="-84.005" y="-2.2583e-6" width="96" height="96" color="#000000" fill="none"/>
 <path d="m2 3.7996h1.749l0.089747 0.12457c0.26697 0.37106 0.54004 0.73527 0.82404 1.0897 0.35992 0.4493 0.72767 0.87181 1.1037 1.2662 0.36468 0.3823 0.87437 0.84566 1.2335 1.1562 0.35926-0.31066 0.86958-0.77404 1.2341-1.1562 0.37609-0.3944 0.74383-0.81696 1.1037-1.2662 0.28381-0.3541 0.55621-0.7183 0.82342-1.0897l0.08974-0.12457h1.749l-0.76904 1.1674c-0.45008 0.64817-0.90678 1.2754-1.375 1.8552-0.52287 0.64758-1.0307 1.2289-1.5243 1.7439-0.45612 0.47592-0.87854 0.86296-1.1955 1.1223l-0.13625 0.11126-0.13625-0.11126c-0.32351-0.26637-0.73862-0.64631-1.1948-1.1223-0.49354-0.51502-1.0015-1.0964-1.5243-1.7439-0.46804-0.57957-0.92537-1.2068-1.3756-1.8552z" color="#000000" color-rendering="auto" image-rendering="auto" shape-rendering="auto" solid-color="#000000" style="isolation:auto;mix-blend-mode:normal;text-decoration-color:#000000;text-decoration-line:none;text-decoration-style:solid;text-indent:0;text-transform:none;white-space:normal"/>
</svg>
